X:1
T:Bagatelle / Für Elise (B-section)
C:Ludwig van Beethoven
M:3/4
L:1/8
Q:1/4=76
K:F
% F major — lyrical contrasting episode
F2 G2 A2 | B2 A2 G2 | F4 z2 | G2 A2 B2 | c2 B2 A2 | G4 z2 |
% Transition toward C major
A2 G2 F2 | E2 F2 G2 | A4 G2 | F2 G2 A2 | C2 D2 E2 | F6 |]
